assets/logos/hangouts.svg

<svg width="80" height="80" viewBox="0 0 80 80" fill="none" xmlns="http://www.w3.org/2000/svg">
<path d="M39.9972 3C22.3225 3.00314 7.99686 17.3337 8 35.0084C8.003 52.0863 21.4149 66.1528 38.4732 66.969V74.6252C38.4719 75.4669 39.1531 76.1502 39.9948 76.1517C40.1464 76.1519 40.2972 76.1295 40.4423 76.0852C58.1352 70.7149 72 52.6805 72 35.0028C71.9816 17.3358 57.6642 3.01843 39.9972 3Z" fill="#4CAF50"/>
<path d="M36.9495 24.3352H24.758C23.9164 24.3352 23.234 25.0176 23.234 25.8592V38.0507C23.234 38.8923 23.9164 39.5747 24.758 39.5747H32.3777V44.1465C32.3768 44.7533 32.736 45.3027 33.292 45.5455C33.4848 45.6279 33.6921 45.6703 33.9016 45.6705C34.2888 45.6706 34.6614 45.5236 34.944 45.259C36.9863 43.3866 38.2469 40.8123 38.4735 38.0508V25.8592C38.4733 25.0176 37.7911 24.3352 36.9495 24.3352Z" fill="#FAFAFA"/>
<path d="M55.2367 24.3352H43.0452C42.2036 24.3352 41.5212 25.0176 41.5212 25.8592V38.0507C41.5212 38.8923 42.2036 39.5747 43.0452 39.5747H50.6649V44.1465C50.664 44.7533 51.0232 45.3027 51.5793 45.5455C51.772 45.6279 51.9793 45.6703 52.1889 45.6705C52.5761 45.6706 52.9487 45.5236 53.2313 45.259C55.2736 43.3866 56.5341 40.8123 56.7607 38.0508V25.8592C56.7606 25.0176 56.0784 24.3352 55.2367 24.3352Z" fill="#FAFAFA"/>
</svg>

<svg xmlns="http://www.w3.org/2000/svg" width="80" height="80" fill="none" viewBox="0 0 80 80"><path fill="#4caf50" d="M39.997 3C22.323 3.003 7.997 17.334 8 35.008c.003 17.078 13.415 31.145 30.473 31.961v7.656a1.524 1.524 0 0 0 1.97 1.46C58.134 70.715 72 52.681 72 35.003 71.982 17.336 57.664 3.018 39.997 3"/><path fill="#fafafa" d="M36.95 24.335H24.758c-.842 0-1.524.683-1.524 1.524v12.192c0 .841.682 1.524 1.524 1.524h7.62v4.572a1.524 1.524 0 0 0 2.566 1.112 11 11 0 0 0 3.53-7.208V25.859c0-.841-.683-1.524-1.524-1.524m18.287 0H43.045c-.841 0-1.524.683-1.524 1.524v12.192c0 .841.683 1.524 1.524 1.524h7.62v4.572a1.524 1.524 0 0 0 2.566 1.112 11 11 0 0 0 3.53-7.208V25.859c0-.841-.683-1.524-1.524-1.524"/></svg>
